FINK
CUT[EIN GROBSCHMIDT SASS IN GUTER RUH]
REG[Europa, Mitteleuropa, Deutschland]
KEY[F0526  08  G 2/4]
MEL[-5  1111  1-6-5
    -5  1_5_  3_1_  2-5-5
    -5  -6-6-5-5  -6-6-5
    -5  -6-6-7-7  1_
    5_  3322  1_0 //] >>
FCT[Studenten - Lied]
